src/lib/packages/icons/src/assets/filled/file-clock.svg

<svg xmlns="http://www.w3.org/2000/svg" width="24" height="24" fill="none"><path fill="currentColor" d="M13.791 15.084a.5.5 0 0 1-.708.707l-.938-.937a.5.5 0 0 1-.146-.354v-1.312a.5.5 0 0 1 1 0v1.105l.792.791ZM17 8.25h2.25l-4.5-4.5V6c0 1.58.67 2.25 2.25 2.25Zm3 1.5V18c0 2-1 3-3 3H8c-2 0-3-1-3-3V6c0-2 1-3 3-3h5.25v3c0 2.42 1.33 3.75 3.75 3.75h3Zm-4 4.75a3.5 3.5 0 1 0-7 0 3.5 3.5 0 0 0 7 0Z"/></svg>

<svg width="24" height="24" viewBox="0 0 24 24" fill="none" xmlns="http://www.w3.org/2000/svg">
<path d="M13.791 15.084C13.986 15.279 13.986 15.596 13.791 15.791C13.693 15.889 13.565 15.937 13.437 15.937C13.309 15.937 13.181 15.888 13.083 15.791L12.145 14.854C12.051 14.76 11.999 14.633 11.999 14.5V13.188C11.999 12.912 12.223 12.688 12.499 12.688C12.775 12.688 12.999 12.912 12.999 13.188V14.293L13.791 15.084ZM17 8.25H19.25L14.75 3.75V6C14.75 7.58 15.42 8.25 17 8.25ZM20 9.75V18C20 20 19 21 17 21H8C6 21 5 20 5 18V6C5 4 6 3 8 3H13.25V6C13.25 8.42 14.58 9.75 17 9.75H20ZM16 14.5C16 12.567 14.433 11 12.5 11C10.567 11 9 12.567 9 14.5C9 16.433 10.567 18 12.5 18C14.433 18 16 16.433 16 14.5Z" fill="currentColor"/>
</svg>
